X: 5571
T: Bush Administration, The
R: reel
M: 4/4
K: Adorian
Aede AAaA|EAAc BGdB|Aede ~a3g|f2 d/e/f gedB|
Aede AAaA|EAAc BGdB|Aede ~a3g|f2 d/e/f gedB||
c~A3 EAcA|B2GA BcdB|c~A3 EAcA|B2 d/e/f gedB|
c~A3 EAcA|B2GA BcdB|Aede ~a3g|f2 d/e/f gedB||

